X:2270
T:Carol 
C:Caley, Sulby 
C:Traditional
O:Isle of Man
N:In the MS the D in last bar was placed in the previous bar
Z:Clague collection
B:Kiaull Vannin #270
M:3/4
L:1/4
K:D 
d|d F/G/ A B/=c/|BB !fermata!AG|d e/g/ f e/d/|e3 A|de f e/d/|cd !fermata!G2|d F/G/ A B/c/|d3|| 

